X:245
%%annotationfont Times 13
T:72nd Highland Gathering, The
C:Joe Buchanan's Scottish Tome - Page 300.3
I:300 3
C:P/M Willie Taylor
Z:Carl Allison
R:Jig
L:1/8
M:6/8
K:D
a | "D"fef "D7"AAA | "G"BAB "G"d2A | "D"fef "Bm"afd | "E7"e3 "A7"e2 a |2
"D"fef "D7"AAA | "G"BAB "D"d2A | "Em"fef "A7"afd | "Em"e3 "A7"e2 :|
a | "D"f>ff "D7"f>af | "G"BBB "G"d2A | "D"fff "Bm"fad | "Em"e3 e2 a |1
"D"f>ff "D7"f>af | "G"BBB "G"d2A | "D"fff "A7"afe | "D"d3"D" d2 :|
